X: 0
T: Gently Falls The Winter Snow
L: 1/4
M: 6/8
Q: 1/4=90
K: Bb
[V: P1]  B B/ B c/ | A G/ F3/ | F F/ (F/G/) A/ | B =E/ F3/ | c F/ d d/ | d _B/ e3/ | (e/d/) c/ f B/ | d c/ B3/ | B B/ B d/ | f c/ A3/ | G G/ G B/ | d B/ A3/ | c c/ (=B/c/) d/ | e e/ e3/ | d f/ B e/ | d c/ B3/|]

